X: 19552
T: James F. Dickie's Delight
R: strathspey
M: 4/4
K: Amajor
{B,}C>B,A,>C {C}D>F A2|[B,G]B/G/ E>G Ac [=G2c2e2]|[Fd]f a>g (3fed (3cde|f<F B>A (3GFE (3DCB,|
A,/CB,/ A,>C {C}D>F A2|[B,G]B/G/ E>G Ac [=G2c2e2]|[Fd]f {f}a>f (3eag (3fed|c<E [Ec][GB] [F2A2] [E2A2]||
A>ce>{g}a G>B e<g|F>Ad>f E>A c<e|C>EA>c (3[DAf]ed (3cBA|B<F B>A G/BG/ (3EFG|
A>c e/aA/ G>B e/gG/|F>A d/fF/ E>A c<e|{c}d>cd>f e/ag/ (3fed|c<E c>B [F2A2] [E2A2]||

